svg/credit_card_lock.svg

<svg xmlns="http://www.w3.org/2000/svg" viewBox="0 0 24 24"><path d="M21.8 15v-1.5c0-1.4-1.4-2.5-2.8-2.5s-2.8 1.1-2.8 2.5V15c-.6 0-1.2.6-1.2 1.2v3.5c0 .7.6 1.3 1.2 1.3h5.5c.7 0 1.3-.6 1.3-1.2v-3.5c0-.7-.6-1.3-1.2-1.3m-1.3 0h-3v-1.5c0-.8.7-1.3 1.5-1.3s1.5.5 1.5 1.3zm-7.47 5H4a2 2 0 0 1-2-2V6a2 2 0 0 1 2-2h16c1.11 0 2 .89 2 2v4.04c-.58-.44-1.25-.78-2-.93V8H4v3h11.04c-.54.72-.84 1.58-.84 2.5v.24c-.7.6-1.2 1.5-1.2 2.46v3.5c0 .1 0 .2.03.3"/></svg>

<svg xmlns="http://www.w3.org/2000/svg" id="mdi-credit-card-lock" viewBox="0 0 24 24"><path d="M21.8 15V13.5C21.8 12.1 20.4 11 19 11S16.2 12.1 16.2 13.5V15C15.6 15 15 15.6 15 16.2V19.7C15 20.4 15.6 21 16.2 21H21.7C22.4 21 23 20.4 23 19.8V16.3C23 15.6 22.4 15 21.8 15M20.5 15H17.5V13.5C17.5 12.7 18.2 12.2 19 12.2S20.5 12.7 20.5 13.5V15M13.03 20H4C2.9 20 2 19.11 2 18V6C2 4.89 2.9 4 4 4H20C21.11 4 22 4.89 22 6V10.04C21.42 9.6 20.75 9.26 20 9.11V8H4V11H15.04C14.5 11.72 14.2 12.58 14.2 13.5V13.74C13.5 14.34 13 15.24 13 16.2V19.7C13 19.8 13 19.9 13.03 20Z" /></svg>
